Origami/16x16/apps/seamonkey.svg

<svg width="16" height="16" version="1.1" viewBox="0 0 16 16" xmlns="http://www.w3.org/2000/svg">
 <path d="m8 3.163e-5a8 8 0 0 0 -8 8 8 8 0 0 0 8 8 8 8 0 0 0 8 -8 8 8 0 0 0 -8 -8z" style="fill:#4882e3"/>
 <path d="m8 3.163e-5a8 8 0 0 0 -7.9328 7.0438c0.76225-0.3259 1.4733-0.4802 2.1453-0.4844h0.00152c0.67831-0.00424 1.3207 0.12613 1.9484 0.31562 1.8842 0.11484 3.5741 0.84362 5.4969 1.0703 0.21364 0.025184 0.43002 0.043424 0.65 0.054687 1.9196-0.084889 4.3404-0.97958 5.5703-1.3312a8 8 0 0 0 -7.88 -6.6688z" style="fill:#335a9e"/>
 <path d="m15.738281 6.0117188c-1.25928 0.3704033-3.563821 1.2065562-5.429687 1.2890624-3.5022891-0.1793289-6.2829588-2.6149302-10.244141-0.2382812a8 8 0 0 0 -0.046875 0.4511719c0.010573281 0.3018533 0.025676506 0.603506 0.0703125 0.9023437 0.40333-0.0862 1.0473532-0.1040031 2.1269532 0.1542969 2.3334 0.5585 5.9104562 1.0080875 7.7851562 0.4296875 1.8746-0.5784 3.502609-0.9402 4.599609-1 0.56108-0.0306 1.037613-0.448095 1.382813-0.234375 0.00155-0.0234375 6.1e-4 -0.0468635 0.001953-0.0703125a8 8 0 0 0 -0.246094 -1.6835937z" style="fill:#7767c0"/>
 <path d="m0.013671875 7.6210938c-0.00769341 0.1264374-0.011990605 0.252246-0.013671875 0.3789062a8 8 0 0 0 0.078125 1.0546875c0.48185709 0.0724493 1.3086934 0.5211371 2.3710938 0.7753906 2.2778999 0.5451299 4.4394312-0.5271869 6.2695312-1.0917969 0.11203-0.03456 0.2238444-0.0626955 0.3339844-0.0859374-0.0012-3.11e-5 -0.0045794 3.03e-5 -0.0058594 0-3.0955-0.7697001-4.3222031-0.91625-9.0332031-1.03125zm9.0390625 1.03125c0.39659 0.00918 0.8407975-0.0139813 1.3046876-0.0507813-0.4154401-0.049536-0.8512376-0.0448747-1.3046876 0.0507813zm1.3046876-0.0507813c1.1322 0.135 2.106265 0.6691669 2.822266 0.8417969 1.197532 0.288733 2.038822 0.5155892 2.564453 0.5351562a8 8 0 0 0 0.255859 -1.9785156c-0.0025-0.059406-0.005966-0.1183978-0.009766-0.1777344-1.7974 0.25102-3.889812 0.6410169-5.632812 0.7792969z" style="fill:#595afd"/>
 <path d="m2.2128906 6.5585938c-0.6714886 0.0041968-1.3828894 0.1589839-2.1445312 0.484375a8 8 0 0 0 -0.00390625 0.0234374c-0.039560588 0.3094512-0.061272931 0.6216269-0.064453125 0.9335938 0.00349881 0.1606313 0.012226545 0.3203395 0.025390625 0.4804688 0.34644-0.2189 0.8247375-0.43755 1.3984375-0.40625 1.0969 0.0597999 3.9885813 2.1338902 5.8632813 2.7128902 1.8747 0.578 4.1884846-1.3654277 6.5214846-1.9238278 0.79-0.1890622 1.603652-0.1831502 2.146484-0.0976562a8 8 0 0 0 0.044922 -0.765625 8 8 0 0 0 -0.0625 -0.953125c-0.338015 0.0167561-0.710165 0.0485672-0.951172 0.1289062-0.837 0.2791-3.548584 1.3919375-5.5839842 1.3359376-2.6109-0.17-4.6513001-1.9691251-7.1875-1.953125h-0.0019532z" style="fill:#8a72ff"/>
 <path d="m11.199512 2c-0.854-0.0424-1.189512 0.3593-1.687312 1.0442-2.675e-4 2.324e-4 -5.342e-4 4.657e-4 -8e-4 7e-4 -0.5933 0.8282-0.9061 1.8023-1.1656 2.7511v6.329e-4c-0.3586 1.3286-0.9643 2.5859-1.7268 3.7346-1.5805 2.3698001-3.7499 4.4318001-6.4202 5.4718001-0.0169814 0.0068-0.0325165 0.01679-0.045782 0.02939l-0.1074 0.101c-0.10144831 0.09531-0.02300038 0.264888 0.11532 0.24928 1.8726-0.22 3.3737-1.467 4.755-2.573 1.1103-0.109 2.2056-0.326 3.279-0.613 5.513e-4 -2.07e-4 0.0011-4.18e-4 0.00165-6.32e-4 1.5086-0.423 2.757412-1.092 3.786412-2.3637001 1.027-1.2584 1.199-3.0098 0.824-4.5271-0.128-0.6064-0.644-1.2278-1.307-1.3589 0.244267-0.5092788 0.5-0.5594698 0.479498-1.5477-0.0042-0.016552-0.01132-0.032227-0.021-0.0463-0.175-0.252-0.472-0.3518709-0.76-0.3523709z" style="fill:#50ddee"/>
</svg>

<svg xmlns="http://www.w3.org/2000/svg" width="16" height="16" version="1.1" viewBox="0 0 16 16">
 <path style="fill:#4882e3" d="m8 0.00003163a8 8 0 0 0 -8 8 8 8 0 0 0 8 8 8 8 0 0 0 8 -8 8 8 0 0 0 -8 -8z"/>
 <path style="fill:#335a9e" d="m8 0.00003163a8 8 0 0 0 -7.9328 7.0438c0.76225-0.3259 1.4733-0.4802 2.1453-0.4844h0.00152c0.67831-0.00424 1.3207 0.12613 1.9484 0.31562 1.8842 0.11484 3.5741 0.84362 5.4969 1.0703 0.21364 0.025184 0.43002 0.043424 0.65 0.054687 1.9196-0.084889 4.3404-0.97958 5.5703-1.3312a8 8 0 0 0 -7.88 -6.6688z"/>
 <path style="fill:#7767c0" d="M 15.738281 6.0117188 C 14.479001 6.3821221 12.17446 7.218275 10.308594 7.3007812 C 6.8063049 7.1214523 4.0256352 4.685851 0.064453125 7.0625 A 8 8 0 0 0 0.017578125 7.5136719 C 0.028151406 7.8155252 0.043254631 8.1171779 0.087890625 8.4160156 C 0.49122062 8.3298156 1.1352438 8.3120125 2.2148438 8.5703125 C 4.5482438 9.1288125 8.1253 9.5784 10 9 C 11.8746 8.4216 13.502609 8.0598 14.599609 8 C 15.160689 7.9694 15.637222 7.551905 15.982422 7.765625 C 15.983972 7.7421875 15.983032 7.7187615 15.984375 7.6953125 A 8 8 0 0 0 15.738281 6.0117188 z"/>
 <path style="fill:#595afd" d="M 0.013671875 7.6210938 C 0.005978465 7.7475312 0.00168127 7.8733398 0 8 A 8 8 0 0 0 0.078125 9.0546875 C 0.55998209 9.1271368 1.3868184 9.5758246 2.4492188 9.8300781 C 4.7271187 10.375208 6.88865 9.3028912 8.71875 8.7382812 C 8.83078 8.7037212 8.9425944 8.6755857 9.0527344 8.6523438 C 9.0515344 8.6523127 9.048155 8.6523741 9.046875 8.6523438 C 5.951375 7.8826437 4.7246719 7.7360938 0.013671875 7.6210938 z M 9.0527344 8.6523438 C 9.4493244 8.6615238 9.8935319 8.6383625 10.357422 8.6015625 C 9.9419819 8.5520265 9.5061844 8.5566878 9.0527344 8.6523438 z M 10.357422 8.6015625 C 11.489622 8.7365625 12.463687 9.2707294 13.179688 9.4433594 C 14.37722 9.7320924 15.21851 9.9589486 15.744141 9.9785156 A 8 8 0 0 0 16 8 C 15.9975 7.940594 15.994034 7.8816022 15.990234 7.8222656 C 14.192834 8.0732856 12.100422 8.4632825 10.357422 8.6015625 z"/>
 <path style="fill:#8a72ff" d="M 2.2128906 6.5585938 C 1.541402 6.5627906 0.83000122 6.7175777 0.068359375 7.0429688 A 8 8 0 0 0 0.064453125 7.0664062 C 0.024892537 7.3758574 0.0031801937 7.6880331 0 8 C 0.00349881 8.1606313 0.012226545 8.3203395 0.025390625 8.4804688 C 0.37183063 8.2615688 0.85012813 8.0429188 1.4238281 8.0742188 C 2.5207281 8.1340187 5.4124094 10.208109 7.2871094 10.787109 C 9.1618094 11.365109 11.475594 9.4216813 13.808594 8.8632812 C 14.598594 8.674219 15.412246 8.680131 15.955078 8.765625 A 8 8 0 0 0 16 8 A 8 8 0 0 0 15.9375 7.046875 C 15.599485 7.0636311 15.227335 7.0954422 14.986328 7.1757812 C 14.149328 7.4548812 11.437744 8.5677187 9.4023438 8.5117188 C 6.7914438 8.3417188 4.7510437 6.5425937 2.2148438 6.5585938 L 2.2128906 6.5585938 z"/>
 <path style="fill:#50ddee" d="M 11.199512,2 C 10.345512,1.9576 10.01,2.3593 9.5122,3.0442 c -2.675e-4,2.324e-4 -5.342e-4,4.657e-4 -8e-4,7e-4 C 8.9181,3.8731 8.6053,4.8472 8.3458,5.796 v 6.329e-4 c -0.3586,1.3286 -0.9643,2.5859 -1.7268,3.7346 -1.5805,2.3698001 -3.7499,4.4318001 -6.4202,5.4718001 -0.0169814,0.0068 -0.0325165,0.01679 -0.045782,0.02939 l -0.1074,0.101 c -0.10144831,0.09531 -0.02300038,0.264888 0.11532,0.24928 1.8726,-0.22 3.3737,-1.467 4.755,-2.573 1.1103,-0.109 2.2056,-0.326 3.279,-0.613 5.513e-4,-2.07e-4 0.0011,-4.18e-4 0.00165,-6.32e-4 1.5086,-0.423 2.757412,-1.092 3.786412,-2.3637001 1.027,-1.2584 1.199,-3.0098 0.824,-4.5271 -0.128,-0.6064 -0.644,-1.2278 -1.307,-1.3589 0.244267,-0.5092788 0.5,-0.5594698 0.479498,-1.5477 -0.0042,-0.016552 -0.01132,-0.032227 -0.021,-0.0463 -0.175,-0.252 -0.472,-0.3518709 -0.76,-0.3523709 z"/>
</svg>
